X:23
T:Over the Water to Charlie
Z: id:dc-slide-24
M:6/8
L:1/8
K:G Major
GBd eBd|efg dBd|GBd eBd|e2f g3|!
GBd eBd|efg dBd|bag agf|e2f g3:|!
bag agf|efg dBd|bag agf|e2a a3|!
bag agf|efg dBd|G3 dBd|e2f g3:|!

